public/icons/paypal.svg

<svg width="21" height="24" viewBox="0 0 21 24" fill="none" xmlns="http://www.w3.org/2000/svg">
<g clipPath="url(#clip0_1_1273)">
<path d="M6.31245 22.9228L6.73085 20.2652L5.79885 20.2436H1.34845L4.44125 0.633162C4.45085 0.573962 4.48205 0.518762 4.52765 0.479562C4.57325 0.440362 4.63165 0.418762 4.69245 0.418762H12.1964C14.6876 0.418762 16.4068 0.937162 17.3044 1.96036C17.7252 2.44036 17.9932 2.94196 18.1228 3.49396C18.2588 4.07316 18.2612 4.76516 18.1284 5.60916L18.1188 5.67076V6.21156L18.5396 6.44996C18.894 6.63796 19.1756 6.85316 19.3916 7.09956C19.7516 7.50996 19.9844 8.03156 20.0828 8.64996C20.1844 9.28596 20.1508 10.0428 19.9844 10.8996C19.7924 11.8852 19.482 12.7436 19.0628 13.446C18.6772 14.0932 18.186 14.63 17.6028 15.046C17.046 15.4412 16.3844 15.7412 15.6364 15.9332C14.9116 16.122 14.0852 16.2172 13.1788 16.2172H12.5948C12.1772 16.2172 11.7716 16.3676 11.4532 16.6372C11.134 16.9124 10.9228 17.2884 10.858 17.6996L10.814 17.9388L10.0748 22.6228L10.0412 22.7948C10.0324 22.8492 10.0173 22.8764 9.99485 22.8948C9.97485 22.9116 9.94605 22.9228 9.91805 22.9228H6.31245Z" fill="#253B80"/>
<path d="M18.9385 5.73438C18.9161 5.87757 18.8905 6.02398 18.8617 6.17438C17.8721 11.2552 14.4865 13.0104 10.1625 13.0104H7.96091C7.43211 13.0104 6.98651 13.3944 6.90411 13.916L5.77691 21.0648L5.45771 23.0912C5.40411 23.4336 5.66811 23.7424 6.01371 23.7424H9.91851C10.3809 23.7424 10.7737 23.4064 10.8465 22.9504L10.8849 22.752L11.6201 18.0864L11.6673 17.8304C11.7393 17.3728 12.1329 17.0368 12.5953 17.0368H13.1793C16.9625 17.0368 19.9241 15.5008 20.7897 11.056C21.1513 9.19918 20.9641 7.64877 20.0073 6.55837C19.7177 6.22957 19.3585 5.95677 18.9385 5.73438Z" fill="#179BD7"/>
<path d="M17.9031 5.32084C17.7519 5.27684 17.5959 5.23684 17.4359 5.20084C17.2751 5.16564 17.1103 5.13444 16.9407 5.10724C16.3471 5.01124 15.6967 4.96564 14.9999 4.96564H9.1183C8.9735 4.96564 8.8359 4.99844 8.7127 5.05764C8.4415 5.18804 8.2399 5.44484 8.1911 5.75924L6.9399 13.684L6.9039 13.9152C6.9863 13.3936 7.4319 13.0096 7.9607 13.0096H10.1623C14.4863 13.0096 17.8719 11.2536 18.8615 6.17364C18.8911 6.02324 18.9159 5.87684 18.9383 5.73364C18.6879 5.60084 18.4167 5.48724 18.1247 5.39044C18.0527 5.36644 17.9783 5.34324 17.9031 5.32084Z" fill="#222D65"/>
<path d="M8.19119 5.75918C8.23999 5.44478 8.44159 5.18798 8.71279 5.05838C8.83679 4.99918 8.97359 4.96638 9.11839 4.96638H15C15.6968 4.96638 16.3472 5.01198 16.9408 5.10798C17.1104 5.13518 17.2752 5.16638 17.436 5.20158C17.596 5.23758 17.752 5.27758 17.9032 5.32158C17.9784 5.34398 18.0528 5.36718 18.1256 5.39038C18.4176 5.48718 18.6888 5.60158 18.9392 5.73358C19.2336 3.85598 18.9368 2.57758 17.9216 1.41998C16.8024 0.145576 14.7824 -0.400024 12.1976 -0.400024H4.69359C4.16559 -0.400024 3.71519 -0.0160244 3.63359 0.506376L0.507991 20.3184C0.446391 20.7104 0.748791 21.064 1.14399 21.064H5.77679L6.93999 13.684L8.19119 5.75918Z" fill="#253B80"/>
</g>
<defs>
<clipPath id="clip0_1_1273">
<rect width="20" height="24" fill="white" transform="translate(0.5)"/>
</clipPath>
</defs>
</svg>

<svg width="21" height="24" fill="none" xmlns="http://www.w3.org/2000/svg"><path d="m6.312 22.923.419-2.658-.932-.021h-4.45L4.44.634A.253.253 0 0 1 4.692.42h7.504c2.492-.001 4.21.517 5.108 1.54.421.48.69.982.819 1.534.136.58.138 1.271.005 2.115l-.01.062v.54l.422.239c.354.188.636.403.852.65.36.41.592.932.69 1.55.102.636.069 1.393-.098 2.25-.192.985-.502 1.844-.921 2.546a5.237 5.237 0 0 1-1.46 1.6 5.923 5.923 0 0 1-1.967.887c-.724.189-1.55.284-2.457.284h-.584c-.418 0-.823.15-1.142.42-.319.275-.53.651-.595 1.063l-.044.239-.74 4.684-.033.172c-.009.054-.024.081-.046.1a.124.124 0 0 1-.077.028H6.312Z" fill="#253B80"/><path d="M18.939 5.734c-.023.144-.049.29-.077.44-.99 5.081-4.375 6.836-8.7 6.836H7.961a1.07 1.07 0 0 0-1.057.906l-1.127 7.149-.32 2.026a.563.563 0 0 0 .557.651h3.905a.94.94 0 0 0 .928-.792l.038-.198.735-4.666.047-.256a.939.939 0 0 1 .928-.793h.584c3.783 0 6.745-1.536 7.61-5.981.362-1.857.175-3.407-.782-4.498a3.733 3.733 0 0 0-1.069-.824Z" fill="#179BD7"/><path d="M17.903 5.32a7.806 7.806 0 0 0-.962-.213A12.227 12.227 0 0 0 15 4.966H9.118a.934.934 0 0 0-.927.793L6.94 13.684l-.036.231a1.07 1.07 0 0 1 1.057-.905h2.201c4.324 0 7.71-1.756 8.7-6.836.03-.15.054-.297.076-.44a5.275 5.275 0 0 0-.813-.344 7.236 7.236 0 0 0-.222-.07Z" fill="#222D65"/><path d="M8.191 5.76a.935.935 0 0 1 .927-.794H15c.697 0 1.347.046 1.94.142a7.806 7.806 0 0 1 1.185.282c.293.097.564.212.814.344.295-1.878-.002-3.156-1.017-4.314C16.802.146 14.782-.4 12.198-.4H4.694c-.528 0-.979.384-1.06.906L.508 20.318a.645.645 0 0 0 .636.746h4.633l1.163-7.38 1.251-7.925Z" fill="#253B80"/></svg>
